X:1
T:The Frim Fram Sauce
C:Joe Ricardel
L:1/8
M:C
I:linebreak $
K:Bb
z ^CDFS |:"Bb6" B2 G^C D F3 | B2 G^C D F3 ||[K:C]"C7" z EG_B"Gm" d2 c2 |$
"C7" G2"C#7" z2"C7" z _B_BG ||[K:Bb]"Eb6" B2 B2"Eo" B2 BG |"Gm/F" BA _A"G7" G2 G B2 |
"C7" d B3"F7" B2 c2 ||1$"Bb6""_Fine" B4 z ^CDF :|2"Bb6" B4 z2 BB ||[K:Eb]"Fm" A2 B2"Bb7" B2 B2 ||
"Eb" G2 B2"Eb6" z2 BB |$"Fm" A2 B2"Bb+" d2 c2 |"Eb6" G8 ||[K:F]"Gm" B2 c2"C7" c2 c2 |
"F6" A2 c2"F#o" z AB=B |$"Gm" c_c B2"C7" A2 A2 ||[K:Bb]"F7" F4 z ^CD"_D.S. al Fine"F ||

